contributed-vectors/zee5.svg

<?xml version="1.0" encoding="UTF-8" standalone="no"?>
<svg
   xmlns:dc="http://purl.org/dc/elements/1.1/"
   xmlns:cc="http://creativecommons.org/ns#"
   xmlns:rdf="http://www.w3.org/1999/02/22-rdf-syntax-ns#"
   xmlns:svg="http://www.w3.org/2000/svg"
   xmlns="http://www.w3.org/2000/svg"
   xmlns:sodipodi="http://sodipodi.sourceforge.net/DTD/sodipodi-0.dtd"
   xmlns:inkscape="http://www.inkscape.org/namespaces/inkscape"
   viewBox="0 0 192 192"
   version="1.1"
   id="svg16"
   sodipodi:docname="zee5.svg"
   inkscape:version="0.92.4 (5da689c313, 2019-01-14)">
  <metadata
     id="metadata20">
    <rdf:RDF>
      <cc:Work
         rdf:about="">
        <dc:format>image/svg+xml</dc:format>
        <dc:type
           rdf:resource="http://purl.org/dc/dcmitype/StillImage" />
        <dc:title></dc:title>
      </cc:Work>
    </rdf:RDF>
  </metadata>
  <sodipodi:namedview
     pagecolor="#ffffff"
     bordercolor="#666666"
     borderopacity="1"
     objecttolerance="10"
     gridtolerance="10"
     guidetolerance="10"
     inkscape:pageopacity="0"
     inkscape:pageshadow="2"
     inkscape:window-width="1920"
     inkscape:window-height="1017"
     id="namedview18"
     showgrid="true"
     inkscape:zoom="4.9166667"
     inkscape:cx="48.09428"
     inkscape:cy="98.440681"
     inkscape:window-x="-8"
     inkscape:window-y="-8"
     inkscape:window-maximized="1"
     inkscape:current-layer="svg16">
    <inkscape:grid
       type="xygrid"
       id="grid827"
       spacingx="4"
       spacingy="4" />
  </sodipodi:namedview>
  <defs
     id="defs4">
    <style
       id="style2">.a{fill:none;stroke:#b1b5bd;stroke-linecap:round;stroke-linejoin:round;isolation:isolate;opacity:0.63;}</style>
  </defs>
  <circle
     class="a"
     cx="96"
     cy="96"
     r="88"
     id="circle8"
     style="fill:#56595b;opacity:1;stroke:none" />
  <path
     style="opacity:1;vector-effect:none;fill:#96dfd3;fill-opacity:1;fill-rule:evenodd;stroke:none;paint-order:stroke fill markers"
     d="M 96 40 C 64.976 40 40 64.976 40 96 C 40 127.024 64.976 152 96 152 L 96 148 C 67.192 148 44 124.808 44 96 C 44 67.192 67.192 44 96 44 L 96 40 z "
     id="rect873" />
  <path
     style="opacity:1;vector-effect:none;fill:#98dc9a;fill-opacity:1;fill-rule:evenodd;stroke:none;paint-order:stroke fill markers"
     d="M 74.197266 48.761719 C 56.342747 56.978999 44 74.989177 44 96 C 44 124.808 67.192 148 96 148 C 103.79718 148 111.17687 146.28774 117.80273 143.23828 L 116.12695 139.60547 C 110.01027 142.42092 103.19816 144 96 144 C 69.408 144 48 122.592 48 96 C 48 76.606162 59.393008 59.980129 75.873047 52.394531 L 74.197266 48.761719 z "
     id="rect871" />
  <path
     style="opacity:1;vector-effect:none;fill:#f9de81;fill-opacity:1;fill-rule:evenodd;stroke:none;paint-order:stroke fill markers"
     d="M 96 48 C 69.408 48 48 69.408 48 96 C 48 117.34505 61.798195 135.33906 80.994141 141.61328 L 82.537109 137.9082 C 64.788553 132.24493 52 115.67458 52 96 C 52 71.624 71.624 52 96 52 C 103.3263 52 110.21725 53.78223 116.28125 56.923828 L 117.82422 53.21875 C 111.28186 49.887763 103.87171 48 96 48 z "
     id="rect818-4" />
  <path
     style="opacity:1;vector-effect:none;fill:#ff837d;fill-opacity:1;fill-rule:evenodd;stroke:none;paint-order:stroke fill markers"
     d="M 75.097656 57.242188 C 61.323444 64.659098 52 79.199945 52 96 C 52 120.376 71.624 140 96 140 C 104.81173 140 112.99603 137.42626 119.86328 133 L 117.82617 129.55078 C 111.55616 133.62734 104.06748 136 96 136 C 73.84 136 56 118.16 56 96 C 56 80.671066 64.538848 67.414877 77.136719 60.695312 L 75.097656 57.242188 z "
     id="rect820" />
  <path
     style="opacity:1;vector-effect:none;fill:#8c72bd;fill-opacity:1;fill-rule:evenodd;stroke:none;paint-order:stroke fill markers"
     d="M 96 56 C 73.84 56 56 73.84 56 96 C 56 115.47282 69.776842 131.60317 88.154297 135.23047 L 103.8457 56.769531 C 101.30968 56.268977 98.687183 56 96 56 z "
     id="rect818" />
  <circle
     class="a"
     cx="96"
     cy="96"
     id="circle10"
     style="opacity:1;isolation:isolate;fill:#ffffff;stroke:none;stroke-width:0.9863013;stroke-linecap:round;stroke-linejoin:round"
     r="36" />
  <g
     aria-label="ZEE5"
     style="font-style:normal;font-variant:normal;font-weight:normal;font-stretch:normal;font-size:27.68956184px;line-height:1.25;font-family:Aleo;-inkscape-font-specification:Aleo;letter-spacing:0px;word-spacing:0px;fill:#56595b;fill-opacity:1;stroke:none;stroke-width:0.69223911"
     id="text967">
    <path
       d="M 100.8405,83.862925 H 85.784299 v 4.049598 h 7.960749 L 84.919,104.6301 h 15.9215 v -4.0496 h -8.756826 z"
       style="font-style:normal;font-variant:normal;font-weight:bold;font-stretch:normal;font-family:Now;-inkscape-font-specification:'Now Bold';fill:#56595b;stroke-width:0.69223911"
       id="path971" />
    <path
       d="M 116.57163,87.877912 V 83.862925 H 104.07672 V 104.6301 h 12.49491 v -4.01499 h -7.92614 v -4.361106 h 6.78395 v -4.014986 h -6.78395 v -4.361106 z"
       style="font-style:normal;font-variant:normal;font-weight:bold;font-stretch:normal;font-family:Now;-inkscape-font-specification:'Now Bold';fill:#56595b;stroke-width:0.69223911"
       id="path973" />
    <path
       d="M 132.68782,87.877912 V 83.862925 H 120.19291 V 104.6301 h 12.49491 v -4.01499 h -7.92614 v -4.361106 h 7.38432 v -4.014986 h -7.38432 v -4.361106 z"
       style="font-style:normal;font-variant:normal;font-weight:bold;font-stretch:normal;font-family:Now;-inkscape-font-specification:'Now Bold';fill:#56595b;stroke-width:0.69223911"
       id="path975"
       inkscape:connector-curvature="0"
       sodipodi:nodetypes="ccccccccccccc" />
    <path
       d="m 147.21954,90.577644 c -1.62676,0 -2.83818,0.553791 -3.80731,1.41909 l 0.34612,-4.153434 h 8.54915 v -3.911151 h -12.04496 l -0.89991,9.899018 3.49581,2.111329 c 0.79607,-0.865298 2.11132,-1.453702 3.25352,-1.453702 1.79982,0 3.14969,1.384479 3.14969,3.1843 0,1.834433 -1.45371,3.184296 -3.63426,3.184296 -1.86904,0 -3.98037,-0.48456 -5.81481,-2.803565 h -0.79607 l -0.31151,4.153435 c 1.52293,1.55754 4.53417,2.69973 7.16468,2.69973 4.56877,0 7.8223,-3.11507 7.8223,-7.406956 0,-3.945762 -2.63051,-6.92239 -6.47244,-6.92239 z"
       style="fill:#ffffff"
       id="path977"
       inkscape:connector-curvature="0" />
  </g>
</svg>

<svg xmlns="http://www.w3.org/2000/svg" id="svg16" version="1.1" viewBox="0 0 192 192"><defs id="defs4"><style id="style2">.a{fill:none;stroke:#b1b5bd;stroke-linecap:round;stroke-linejoin:round;isolation:isolate;opacity:.63}</style></defs><circle id="circle8" cx="96" cy="96" r="88" class="a" style="fill:#56595b;opacity:1;stroke:none"/><path id="rect873" d="M96 40c-31.024 0-56 24.976-56 56s24.976 56 56 56v-4c-28.808 0-52-23.192-52-52s23.192-52 52-52v-4z" style="opacity:1;vector-effect:none;fill:#96dfd3;fill-opacity:1;fill-rule:evenodd;stroke:none;paint-order:stroke fill markers"/><path id="rect871" d="M74.197 48.762C56.343 56.979 44 74.989 44 96c0 28.808 23.192 52 52 52a52.002 52.002 0 0 0 21.803-4.762l-1.676-3.633A47.998 47.998 0 0 1 96 144c-26.592 0-48-21.408-48-48 0-19.394 11.393-36.02 27.873-43.605l-1.676-3.633z" style="opacity:1;vector-effect:none;fill:#98dc9a;fill-opacity:1;fill-rule:evenodd;stroke:none;paint-order:stroke fill markers"/><path id="rect818-4" d="M96 48c-26.592 0-48 21.408-48 48 0 21.345 13.798 39.34 32.994 45.613l1.543-3.705C64.79 132.245 52 115.675 52 96c0-24.376 19.624-44 44-44a43.947 43.947 0 0 1 20.281 4.924l1.543-3.705A47.947 47.947 0 0 0 96 48z" style="opacity:1;vector-effect:none;fill:#f9de81;fill-opacity:1;fill-rule:evenodd;stroke:none;paint-order:stroke fill markers"/><path id="rect820" d="M75.098 57.242C61.323 64.66 52 79.2 52 96c0 24.376 19.624 44 44 44 8.812 0 16.996-2.574 23.863-7l-2.037-3.45C111.556 133.628 104.067 136 96 136c-22.16 0-40-17.84-40-40 0-15.329 8.539-28.585 21.137-35.305l-2.04-3.453z" style="opacity:1;vector-effect:none;fill:#ff837d;fill-opacity:1;fill-rule:evenodd;stroke:none;paint-order:stroke fill markers"/><path id="rect818" d="M96 56c-22.16 0-40 17.84-40 40 0 19.473 13.777 35.603 32.154 39.23l15.692-78.46A40.48 40.48 0 0 0 96 56z" style="opacity:1;vector-effect:none;fill:#8c72bd;fill-opacity:1;fill-rule:evenodd;stroke:none;paint-order:stroke fill markers"/><circle id="circle10" cx="96" cy="96" r="36" class="a" style="opacity:1;isolation:isolate;fill:#fff;stroke:none;stroke-width:.9863013;stroke-linecap:round;stroke-linejoin:round"/><g id="text967" aria-label="ZEE5" style="font-style:normal;font-variant:normal;font-weight:400;font-stretch:normal;font-size:27.68956184px;line-height:1.25;font-family:Aleo;-inkscape-font-specification:Aleo;letter-spacing:0;word-spacing:0;fill:#56595b;fill-opacity:1;stroke:none;stroke-width:.69223911"><path id="path971" d="M100.84 83.863H85.785v4.05h7.961l-8.826 16.717h15.921v-4.05h-8.756z" style="font-style:normal;font-variant:normal;font-weight:700;font-stretch:normal;font-family:Now;-inkscape-font-specification:&quot;Now Bold&quot;;fill:#56595b;stroke-width:.69223911"/><path id="path973" d="M116.572 87.878v-4.015h-12.495v20.767h12.495v-4.015h-7.927v-4.361h6.784v-4.015h-6.784v-4.361z" style="font-style:normal;font-variant:normal;font-weight:700;font-stretch:normal;font-family:Now;-inkscape-font-specification:&quot;Now Bold&quot;;fill:#56595b;stroke-width:.69223911"/><path id="path975" d="M132.688 87.878v-4.015h-12.495v20.767h12.495v-4.015h-7.926v-4.361h7.384v-4.015h-7.384v-4.361z" style="font-style:normal;font-variant:normal;font-weight:700;font-stretch:normal;font-family:Now;-inkscape-font-specification:&quot;Now Bold&quot;;fill:#56595b;stroke-width:.69223911"/><path id="path977" d="M147.22 90.578c-1.627 0-2.839.553-3.808 1.419l.346-4.154h8.55v-3.91h-12.045l-.9 9.898 3.495 2.111c.797-.865 2.112-1.453 3.254-1.453 1.8 0 3.15 1.384 3.15 3.184 0 1.835-1.454 3.184-3.635 3.184-1.869 0-3.98-.484-5.814-2.803h-.796l-.312 4.153c1.523 1.558 4.534 2.7 7.165 2.7 4.568 0 7.822-3.115 7.822-7.407 0-3.946-2.63-6.922-6.472-6.922z" style="fill:#fff"/></g></svg>
